svg/blobs-icons/no-decorations/fridge.svg

<svg xmlns="http://www.w3.org/2000/svg" xmlns:xlink="http://www.w3.org/1999/xlink" preserveAspectRatio="xMidYMid" width="134" height="216" viewBox="0 0 134 216"><defs><style>.cls-3{fill:#ededed}.cls-4{fill:#142a3b}.cls-5{fill:#000}.cls-7{fill:#000;opacity:.25}.cls-9{fill:#000;opacity:.35}.cls-10{fill:#ff3a2f}</style></defs><g id="group-63svg"><path d="M133.479 60.628s-133.477.0-133.477.0.0-60.637.0-60.637 133.477.0 133.477.0.0 60.637.0 60.637z" id="path-1" class="cls-3" fill-rule="evenodd"/><path d="M115.372 215.524s-97.263.0-97.263.0.0-12.008.0-12.008 97.263.0 97.263.0.0 12.008.0 12.008z" id="path-2" class="cls-4" fill-rule="evenodd"/><path d="M115.372 211.719s-97.263-3.602-97.263-3.602.0-4.601.0-4.601 97.263.0 97.263.0.0 8.203.0 8.203z" id="path-3" class="cls-5" fill-rule="evenodd"/><path d="M.002 203.516s133.477.0 133.477.0.0-142.288.0-142.288-133.477.0-133.477.0.0 142.288.0 142.288z" id="path-4" class="cls-3" fill-rule="evenodd"/><path d="M119.07-.009s0 61.237.0 61.237 14.409.0 14.409.0.0-61.237.0-61.237-14.409.0-14.409.0z" id="path-5" class="cls-7" fill-rule="evenodd"/><path d="M.002 61.228s0 3.603.0 3.603S119.07 72.036 119.07 72.036s0 131.48.0 131.48 14.409.0 14.409.0.0-142.288.0-142.288-133.477.0-133.477.0z" id="path-6" class="cls-7" fill-rule="evenodd"/><path d="M108.72 124.268S100.314 124.268 100.314 124.268s0-76.848.0-76.848S108.72 47.42 108.72 47.42s0 76.848.0 76.848z" id="path-7" class="cls-9" fill-rule="evenodd"/><path d="M105.117 120.665s-8.405.0-8.405.0.0-76.847.0-76.847 8.405.0 8.405.0.0 76.847.0 76.847z" id="path-8" class="cls-10" fill-rule="evenodd"/><path d="M115.372 215.524s-97.263.0-97.263.0.0-12.008.0-12.008 97.263.0 97.263.0.0 12.008.0 12.008z" id="path-9" class="cls-4" fill-rule="evenodd"/></g></svg>

<svg xmlns="http://www.w3.org/2000/svg" xmlns:xlink="http://www.w3.org/1999/xlink" preserveAspectRatio="xMidYMid" width="134" height="216" viewBox="0 0 134 216">
  <defs>
    <style>

      .cls-3 {
        fill: #ededed;
      }

      .cls-4 {
        fill: #142a3b;
      }

      .cls-5 {
        fill: #000000;
      }

      .cls-7 {
        fill: #000000;
        opacity: 0.25;
      }

      .cls-9 {
        fill: #000000;
        opacity: 0.35;
      }

      .cls-10 {
        fill: #ff3a2f;
      }
    </style>
  </defs>
  <g id="group-63svg">
    <path d="M133.479,60.628 C133.479,60.628 0.002,60.628 0.002,60.628 C0.002,60.628 0.002,-0.009 0.002,-0.009 C0.002,-0.009 133.479,-0.009 133.479,-0.009 C133.479,-0.009 133.479,60.628 133.479,60.628 Z" id="path-1" class="cls-3" fill-rule="evenodd"/>
    <path d="M115.372,215.524 C115.372,215.524 18.109,215.524 18.109,215.524 C18.109,215.524 18.109,203.516 18.109,203.516 C18.109,203.516 115.372,203.516 115.372,203.516 C115.372,203.516 115.372,215.524 115.372,215.524 Z" id="path-2" class="cls-4" fill-rule="evenodd"/>
    <path d="M115.372,211.719 C115.372,211.719 18.109,208.117 18.109,208.117 C18.109,208.117 18.109,203.516 18.109,203.516 C18.109,203.516 115.372,203.516 115.372,203.516 C115.372,203.516 115.372,211.719 115.372,211.719 Z" id="path-3" class="cls-5" fill-rule="evenodd"/>
    <path d="M0.002,203.516 C0.002,203.516 133.479,203.516 133.479,203.516 C133.479,203.516 133.479,61.228 133.479,61.228 C133.479,61.228 0.002,61.228 0.002,61.228 C0.002,61.228 0.002,203.516 0.002,203.516 Z" id="path-4" class="cls-3" fill-rule="evenodd"/>
    <path d="M119.070,-0.009 C119.070,-0.009 119.070,61.228 119.070,61.228 C119.070,61.228 133.479,61.228 133.479,61.228 C133.479,61.228 133.479,-0.009 133.479,-0.009 C133.479,-0.009 119.070,-0.009 119.070,-0.009 Z" id="path-5" class="cls-7" fill-rule="evenodd"/>
    <path d="M0.002,61.228 C0.002,61.228 0.002,64.831 0.002,64.831 C0.002,64.831 119.070,72.036 119.070,72.036 C119.070,72.036 119.070,203.516 119.070,203.516 C119.070,203.516 133.479,203.516 133.479,203.516 C133.479,203.516 133.479,61.228 133.479,61.228 C133.479,61.228 0.002,61.228 0.002,61.228 Z" id="path-6" class="cls-7" fill-rule="evenodd"/>
    <path d="M108.720,124.268 C108.720,124.268 100.314,124.268 100.314,124.268 C100.314,124.268 100.314,47.420 100.314,47.420 C100.314,47.420 108.720,47.420 108.720,47.420 C108.720,47.420 108.720,124.268 108.720,124.268 Z" id="path-7" class="cls-9" fill-rule="evenodd"/>
    <path d="M105.117,120.665 C105.117,120.665 96.712,120.665 96.712,120.665 C96.712,120.665 96.712,43.818 96.712,43.818 C96.712,43.818 105.117,43.818 105.117,43.818 C105.117,43.818 105.117,120.665 105.117,120.665 Z" id="path-8" class="cls-10" fill-rule="evenodd"/>
    <path d="M115.372,215.524 C115.372,215.524 18.109,215.524 18.109,215.524 C18.109,215.524 18.109,203.516 18.109,203.516 C18.109,203.516 115.372,203.516 115.372,203.516 C115.372,203.516 115.372,215.524 115.372,215.524 Z" id="path-9" class="cls-4" fill-rule="evenodd"/>
  </g>
</svg>
